X: 1
T: Tara Lynn's March To God
Z: Tate
S: http://thesession.org/tunes/12620#setting21233
R: strathspey
M: 4/4
L: 1/8
K: Ador
C: Lee Cremo
c>B|A3 B c>Bc>d|e>A A/A/A c2 B<A|G3 A B>AB>c|d>G G/G/G B2 A<G|
A3 B c3 d|e<a^g<b a2 e>f|g>a{ga}g>e d<Bg<B|A4 A2 c>B|
A>GA>B c>Bc>d|e>A A/A/A c2 B<A|G3 A B>AB>c|d>G G/G/G B2 A<G|
A3 B c3 d|e<a^g<b a2 e>f|g>a{ga}g>e d<Bg<B|A4 A2||
|:(3ef^g|a3 g e2 e<a|c>A A/A/A e<a{ga}g>e|g2 g<e d2 g<d|B>G G/G/G B2 A<G|
a2 a<g e2 e<a|c>A A/A/A e<ae>f|g>a{ga}g>e d<Bg<B|A4 A2:|
C>B,|A,3 B, C>B,C>D|E>A, A,/A,/A, C2 B,<A,|G,3 A, B,>A,B,>E|D>G, G,/G,/G, B,2 A,<G,|
A,3 B, C3 D|E<A^G<B A2 (3DEF|G>AG>E D<B,G<B,|A,4 A,2|
C>B,|A,>G,A,>B, C>B,C>D|E>A, A,/A,/A, C2 B,<A,|G,>G,G,>A, B,>A,B,>E|D>G, G,/G,/G, B,2 A,<G,|
A,3 B, C3 D|E<A^G<B A2 (3DEF|G>AG>E D<B,G<B,|A,4 A,2||
|:(3ef^g|a3 g e2 e<a|c>A A/A/A e<a{ga}g>e|g2 g<e d2 g<d|B>G G/G/G B2 A<G|
a2 a<g e2 e<a|c>A A/A/A e<ae>f|g>a{ga}g>e d<Bg<B|A4 A2:|
